X:1
T:Deirn D
C:TraditionaL
M:4/4
K:Gm
G2G2G2A2|F2FDF3F|G2A2B2D2|B2ABG4|
G2G2G2A2|F2FDF3F|G2A2B2D2|B2ABG4|
G2G2G2A2|F2FDF3F|G2A2B2D2|B2ABG4|
G2G2G2A2|F2FDF3F|G2A2B2D2|B2ABG4||
W:
W:  Deirn d, deirn d,
W: T'n gabhairn oche amuigh san bhfraoch,
W:  Deirn d, deirn d,
W: T'n bunn donn a' labhairt san bhfith.
W:
W:  Deirn d, deirn d,
W: Geidh ba siar le hir an lae,
W:  Deirn d, deirn d,
W: Is raghaidh mo leanbh ' bhfeighilt ar far.
W:
W:  Deirn d, deirn d,
W: Eireidh gealach is raghaidh grian f,
W:  Deirn d, deirn d,
W: Tiocfaidh ba aniar le deireadh an lae.
W:
W:  Deirn d, deirn d,
W: Leogfad mo leanbh a' pioca smar,
W:  Deirn d, deirn d,
W: --Ach codail go smh go finne an lae!
